X:1
T:Why Shouldn't I
T:Why Shouldn't I
T:Cole Porter
T:Arr: Jon Burr
C:Cole Porter
Z:All Rights Reserved
L:1/8
Q:1/4=120
M:4/4
K:C
V:1 treble nm="MusicXML Part"
%%MIDI program 0
%%MIDI control 7 102
%%MIDI control 10 64
V:1
"C" G6"Am" FE |"Dm7" G6"G7" FE |"C" G2 FE"Am" G2 FE |"Dm7""G7" D8 |"Em7" E6"A7" DC | %5
w: Why should- n't|I take a|chance when ro- mance pas- ses|by|Why should- n't|
"Dm7" D6"G7" CB, |"C""Am7" C8 |"Dm7""G7" z8 ||"C" G6"Am" FE |"Dm7" G6"G7" FE | %10
w: I know of|love?||Why wait a-|round when each|
"C" G2 ^FG"Am" A2 Bc |"F#m7" B6"B7" A^F |"E" ^G2 B2"C#m" ^c2 BA |"F#m7" ^G2 ^FE"B7" FE ^D2 | %14
w: age has a sage who has|found That up-|on this earth love is|all that is real- ly worth|
"E" E2 EE-"F#m7""Fdim" E4- |"E/G#" E2"A9" E2 E2"Eb/A" _E2 |"Dm" D4 ^C2 D2 |"^E¿7" A6"A9" B,^C | %18
w: think- ing of? _|_ It must be|fun, lots of|fun To be|
"Dm" E2 D2 ^C2 D2 |"^F#¿7" c6"B7b9" ^E^F |"Em11" A2 G2 ^F2 G2 |"Bm" d6"D7" c^F | %22
w: sure when day is|done That the|hour is com- ing|when you'll be|
"G7" B2 FA-"C#dim" A G2 E |"Dm7" F2 DG-"G7" GDEF |"C" G6"Am" FE |"Dm7" G4-"G7" GDEF | %26
w: kissed And then _ you'll be|kissed a- gain _ All deb- u-|tantes say it's|good _ And ev- 'ry|
"Gm7" G2 ^FG"C13" A2 GE |"F" (3:2:2D2 C2 D2"A7b13" (3E2 F2 G2 |"D9" A6 e2 |"G7" d6 cB |"C" c8- | %31
w: star out in far Hol- ly-|wood Seems to give it a|try So|why should- n't|I?|
 c8 |] %32
w: _|

